!!!!SEGMENT: pl-wumfc--r282--002-014_paderewski-ignacy-jan---exercises-2--exercise-14.krn
!!!cenid: 18xx:3189
!!!COM: Paderewski, Ignacy Jan
!!!COM-rismid: pe30029943
!!!CDT: 1860/11/18-1941/06/29
!!!CNT: Polish
!!!GTL: [Exercises 2]
!!!OTL: [Exercise] 14
!!!OMV: 014
!!!PDT:
!!!AGN:
!!!SMS-siglum: PL-Wumfc
!!!SMS-shelfmark: R282
!!!SMS-shelfwork: 002-014 G
!!!SMS-variant:
!!!SMS-altvar:
!!!NIFC-rismid: 1001158933
!!!URL-scan: http://repozytorium.nifc.pl/skany/pl-wumfc--r282
!!!ONB-nifc: UWAGA: druga grupa ćwiczeń od skanu 0008
!!!OMD:
!!!key: C
**kern	**kern
*part1	*part1
*staff2	*staff1
*I"Fortepian	*I"Fortepian
*Ipiano	*Ipiano
*ICklav	*ICklav
*clefF4	*clefG2
*k[]	*k[]
*C:	*C:
*M4/4	*M4/4
*	*^
!	!LO:TX:t=P:problem:brak metrum	!
8G\L	2b/	2g\
8A\	.	.
8G\	.	.
8F\J	.	.
=1	=1	=1
8E\L	2b/	2g\
8F\	.	.
8G\	.	.
8E\J	.	.
8D\L	2dd/	2f\
8E\	.	.
8F\	.	.
8G\J	.	.
=2	=2	=2
8A\L	2cc/	2e\
8B\	.	.
8c\	.	.
8A\J	.	.
8B\L	2dd/	2d\
8A\	.	.
8G\	.	.
8F\J	.	.
=3	=3	=3
8E\L	[>2ee/	2g\
8e\	.	.
8c\	.	.
8B\J	.	.
8A\L	2ee/]	2a\
8B\	.	.
8c\	.	.
8A\J	.	.
=4	=4	=4
2G;>\	2gg;>/	2b;<\
8g\L	2dd/	2b\
8a\	.	.
8g\	.	.
8f\J	.	.
=5	=5	=5
8e\L	[>2gg/	2b\
8d\	.	.
8e\	.	.
8f\J	.	.
8g\L	2gg/]	2b\
8f\	.	.
8g\	.	.
8e\J	.	.
=6	=6	=6
8f\L	2aa/	2a\
8e\	.	.
8f\	.	.
8d\J	.	.
8g\L	[>2ee/	2g\
8f\	.	.
8e\	.	.
8g\J	.	.
!!LO:LB:g=original
=7	=7	=7
8e\L	2ee/]	2cc\
8d\	.	.
8e\	.	.
8f\J	.	.
8g\L	2dd/	2b\
8f\	.	.
8g\	.	.
8G\J	.	.
=8	=8	=8
2A;>\	2cc;>/	2a;<\
8g\L	2b/	2g\
8f\	.	.
8e\	.	.
8d\J	.	.
=9	=9	=9
8c\L	2cc/	2a\
8B\	.	.
8c\	.	.
8A\J	.	.
8G\L	2dd/	2b\
8A\	.	.
8B\	.	.
8d\J	.	.
=10	=10	=10
8c\L	2ee/	2a\
8B\	.	.
8c\	.	.
8A\J	.	.
8B\L	2b/	2g\
8A\	.	.
8B\	.	.
8G\J	.	.
=11	=11	=11
8A\L	2cc/	2e\
8B\	.	.
8c\	.	.
8A\J	.	.
8d\L	2a/	2f\
8e\	.	.
8d\	.	.
8c\J	.	.
!!LO:LB:g=original
=12	=12	=12
2B;>\	2b;>/	2g\
8F\L	[>2dd/	2dd\
8G\	.	.
8F\	.	.
8D\J	.	.
=13	=13	=13
8G\L	2dd/]	2b\
8A\	.	.
8B\	.	.
8d\J	.	.
8e\L	2gg/	2g\
8f\	.	.
8e\	.	.
8d\J	.	.
=14	=14	=14
8c\L	[>2ee/	2a\
8B\	.	.
8A\	.	.
8c\J	.	.
8A\L	2ee/]	2cc\
8B\	.	.
8c\	.	.
8A\J	.	.
=15	=15	=15
8G\L	2gg/	2b\
8A\	.	.
8B\	.	.
8c\J	.	.
8d\L	2ff/	2a\
8e\	.	.
8d\	.	.
8D\J	.	.
=16	=16	=16
2G;>\	2gg;>/	2g;<\
*	*v	*v
!!LO:PB:g=original
==	==
*-	*-
!!!system-decoration: [(s1,s2)]
!!!RDF**kern: < = below
!!!RDF**kern: > = above
!!!ENC: Andrzej Gręziak
!!!END: 2021-11-13
!!!ENC: Marta Chmielewska
!!!END: 2021-11-16
